X:1
T:Voyez comment vous pourriez
T:Lemoyne
T:Source : Livre XII de 30 chansons nouvelles à 4 parties---Paris---P.Attaingnant---1543. Editor : André Vierendeels (20/06/18) Notes : Original clefs : C1, C3, C4, F4 Original note values have been halved Editorial accidentals above the staff
T:Voyez comment vous pourriez
T:©
T:©
T:©
C:Lemoyne
Z:©
%%score [ 1 [ 2 3 ] 4 ]
L:1/8
Q:1/4=120
M:2/2
K:F
V:1 treble nm="Alto" snm="A"
V:2 treble-8 nm="Tenor 1" snm="T 1"
V:3 treble-8 nm="Tenor 2" snm="T 2"
V:4 bass nm="Bass" snm="B"
V:1
 C8 | C4 D4 | F2 A2 G2 A2 | B2 AG F2 A2- | AGFE F4 | E2 E2 F4 | G4 A2 A2 | A2 A2 c3 B | %8
w: Voy-|ez com-|ment vous pour- riez|par _ _ _ ri-||gueur, vain- cre|ce cueur qui|tel zè- le _|
w: Que|plus il|vit en pei- n'et|_ _ _ _ _|* * * * lan-|gueur, plus son|a- mour s'aug-|men- t'et de- vient|
 A2 GF EDEF | G2 A2 G2 F2- | F2 E2 F4 |[M:2/4] z4 :|[M:2/2] z2 D2 D4 | z2 B2 B2 B2 | A3 G F2 F2 | %15
w: |* vous por- *|* * te,||he- las,|il n'a e-|spoir qui le con-|
w: for- * * * * * *||* * te,|||||
 E2 DC D4 | C4 z2 C2 | F2 G2 A3 G | F2 E2 F3 G | A2 B3 A A2- | A2 G2 A4 | z2 F2 F4 | E4 C2 c2 | %23
w: for- * * *|te, fors|que ver- rez _|_ par de _|_ fault de pi-|* * tyé,|de- vant|vos yeulx u-|
w: ||||||||
 c3 B A3 G/F/ | E2 F3 E DC | D4 C4- |[M:2/4] C4 |:[M:2/2] C8 | C4 D3 E | F2 A2 A2 A2 | c3 B A2 GF | %31
w: ne per- son- * *|ne mor- * * *|* te,|_|par|vous a- *|* voir trop por-|té _ _ d'a- *|
w: ||||||||
 EDEF G2 A2 | GF F4 E2 | F8 :| %34
w: |* * my- *|tié.|
w: |||
V:2
 A8 | A4 F3 G | A4 z2 c2 | B2 c2 d2 cB | A2 c4 B2 | c2 c2 A2 d2- | d2 cB AGAB | cBcd e2 e2 | %8
w: Voy-|ez com- *|ment vous|pour- riez par _ _|_ ri- *|gueur, vain- cre ce||* * * * cueur qui|
w: Que|plus il _|vit en|pei- n'et _ _ _|_ lan- *|gueur, plus son a-|* * * mour _ _ _|_ _ _ _ _ s'aug-|
 e2 c2 cBcd | e2 f2 d2 B2 | c4 A4 |[M:2/4] z4 :|[M:2/2] z2 B2 B4 | z2 d2 d2 f2 | f3 e/d/ c2 d2 | %15
w: tel zè- le _ _ _|_ vous por- *|* te,||he- las|il n'a e-|spoir _ _ _ qui|
w: men- t'et de- * * *|* * * vient|for- te,|||||
 c2 c2 B3 A | G4 A2 A2 | B2 B2 A2 c2 | d2 c2 A2 d2 | e2 f2 f4 | d4 d4 | z2 d2 d4 | c4 A4 | %23
w: le con- for- *|* te, fors|que ver- rez par|de- fault de pi-||* tyé,|de- vant|vos yeulx|
w: ||||||||
 z2 c2 c2 c2 | cBAG F2 A2- | A2 G2 A4- |[M:2/4] A4 |:[M:2/2] A8 | A4 F3 G | AGAB cBcd | %30
w: u- ne per-|son- * * * ne mor-|* * te,|_|par|vous a- *||
w: |||||||
 e2 e2 e2 c2 | cBcd e2 f2 | d2 B2 c4 | A8 :| %34
w: voir trop por- té|d'a- * * * * *|* * my-|tié.|
w: ||||
V:3
 F8 | E4 D4 | C2 F2 E2 F2 | G2 FE D2 F2- | FEDC D4 | C4 z2 F2 | F2 E2 F4 | z2 A2 A2 A2 | %8
w: Voy-|ez com-|ment vous pour- riez|par _ _ _ ri||gueur, vain-|cre ce cueur|qui tel zè-|
w: Que|plus il|vit en pei- n'et|_ _ _ _ _|* * * * lan-|gueur, plus|son a- mour|s'aug- men- t'et|
 c2 BA GFGA | B2 c2 BAGF | G4 F4- |[M:2/4] F4 :|[M:2/2] z4 F4 | F4 z2 d2 | c3 B A2 B2 | %15
w: le _ _ _ _ _ _|_ vous por- * * *|* te,|_|he-|las, il|n'a e- spoir qui|
w: de- * * * * * *|* * vient _ _ _|for- te,|_||||
 G2 A2 GF F2- | F2 E2 F2 F2 | D2 E2 F2 A2 | B2 G2 FGAB | c2 d3 c BA | B4 A4 | z2 A2 B4 | G4 F2 A2 | %23
w: le con- for- * *|* * te, fors|que ver- rez par|de- fault de _ _ _|_ _ _ _ _|pi- tyé,|de- vant|vos yeulx u-|
w: ||||||||
 A6 A2 | G2 F2 D2 F2- | F2 ED E4- |[M:2/4] E4 |:[M:2/2] F8 | E4 D4 | C4 z2 A2 | A2 A2 c2 BA | %31
w: ne per-|son- ne mor- *|* * * te,|_|par|vous a-|voir trop|por- té d'a- * *|
w: ||||||||
 GFGA B2 c2 | BAGF G4 | F8 :| %34
w: |* * * * my-|tié.|
w: |||
V:4
 F,,8 | A,,4 B,,4 | F,,4 z2 A,,2 | G,,2 A,,2 B,,2 A,,G,, | F,,4 z4 | z2 A,,2 D,3 C, | %6
w: Voy-|ez com-|ment vous|pour- riez par ri- *|gueur|vain- cre _|
w: Que|plus il|vit en|pei- n'et lan- * *|gueur|plus son _|
 B,,2 C,2 F,,4- | F,,4 z2 A,,2 | A,,2 A,,2 C,2 B,,A,, | G,,2 F,,2 B,,2 D,2 | C,4 F,,4 | %11
w: _ ce cueur|_ qui|tel zè- le _ _|_ vous por- *|* te,|
w: _ a- mour|_ s'aug-|men- t'et de- * *|* * vient for-|* te,|
[M:2/4] z4 :|[M:2/2] B,,4 B,,4 | z2 B,,2 B,,2 B,,2 | F,6 B,,2 | C,2 F,,2 B,,4 | C,4 F,,4 | %17
w: |he- las,|il n'a e-|spoir qui|le con- for-|* te,|
w: ||||||
 z4 z2 F,,2 | B,,2 C,2 D,2 D,2 | C,2 B,,2 F,4 | G,4 D,4 | z2 D,2 B,,4 | C,4 F,,4 | %23
w: fors|que ver- rez par|de- fault de|pi- tyé,|de- vant|vos yeulx|
w: ||||||
 z2 A,,2 A,,2 A,,2 | C,2 D,3 C, B,,A,, | B,,4 A,,4- |[M:2/4] A,,4 |:[M:2/2] F,,8 | A,,4 B,,4 | %29
w: u- ne per-|son- ne _ _ _|mor- te,|_|par|vous a-|
w: ||||||
 F,,8 | z2 A,,2 A,,2 A,,2 | C,2 B,,A,, G,,2 F,,2 | B,,2 D,2 C,4 | F,,8 :| %34
w: voir|trop por- té|d'a- * * * *|* * my-|tié.|
w: |||||

